actions/22x22-dark/view-barcode-add.svg

<svg viewBox="0 0 22 22" xmlns="http://www.w3.org/2000/svg"><path d="m3.88867 3c-.49244 0-.88867.35758-.88867.80078v14.39844c0 .4432.39623.80078.88867.80078h14.22266c.49244 0 .88867-.35758.88867-.80078v-14.39844c0-.4432-.39623-.80078-.88867-.80078zm1.51367 2h .24219c.17783 0 .32212.14446.32227.32227v11.35546c0 .17781-.14432.32227-.32227.32227h-.24219c-.1778 0-.32226-.14432-.32226-.32227v-11.35546c0-.17781.14446-.32227.32226-.32227zm1.61133 0h .88477c.1778 0 .32224.14446.32226.32227v11.35546c0 .17781-.14446.32227-.32226.32227h-.88477c-.17797 0-.32226-.14432-.32226-.32227v-11.35546c0-.17781.14431-.32227.32226-.32227zm2.09375 0h .88672c.17795 0 .3221.14446.32227.32227v11.35546c0 .17781-.14432.32227-.32227.32227h-.88672c-.17797 0-.32226-.14432-.32226-.32227v-11.35546c0-.17781.14431-.32227.32226-.32227zm2.09375 0h .0801c.1778 0 .32227.14446.32227.32227v11.35546c0 .17781-.14444.32227-.32227.32227h-.0801c-.17795 0-.32227-.14432-.32227-.32227v-11.35546c.00001-.17781.14432-.32227.32227-.32227zm1.28906 0h2.81836c.17781 0 .32227.14446.32227.32227v7.08203c.00077.43027-.41211.41211-.41211.41211h-.93359s-.29578-.004-.30274.3164v3.53125c.007.3329-.32617.33594-.32617.33594h-1.16602c-.17777 0-.32226-.14432-.32226-.32227v-11.35546c0-.17781.14446-.32227.32226-.32227zm4.02735 0h .0801c.1778 0 .32226.14446.32226.32227v7.15429c0 .1778-.14444.32227-.32226.32227h-.0801c-.17795 0-.32227-.14432-.32227-.32227v-7.15429c0-.17781.14432-.32227.32227-.32227zm-.51758 8.36133h.69922v1.40039h1.40039v.70117h-1.40039v1.39844h-.69922v-1.39844h-1.40039v-.70117h1.40039z" fill="#f2f2f2"/></svg>

<svg xmlns="http://www.w3.org/2000/svg" viewBox="0 0 22 22">
  <defs id="defs3051">
    <style type="text/css" id="current-color-scheme">
      .ColorScheme-Text {
        color:#f2f2f2
      }
      </style>
  </defs>
 <path 
     style="fill:currentColor;fill-opacity:1;stroke:none"      
	 class="ColorScheme-Text"
        d="M 3.88867,3 C 3.39623,3 3,3.35758 3,3.80078 L 3,18.19922 C 3,18.64242 3.39623,19 3.88867,19 l 14.22266,0 C 18.60377,19 19,18.64242 19,18.19922 L 19,3.80078 C 19,3.35758 18.60377,3 18.11133,3 L 3.88867,3 Z M 5.40234,5 5.64453,5 C 5.82236,5 5.96665,5.14446 5.9668,5.32227 l 0,11.35546 C 5.9668,16.85554 5.82248,17 5.64453,17 L 5.40234,17 C 5.22454,17 5.08008,16.85568 5.08008,16.67773 l 0,-11.35546 C 5.08008,5.14446 5.22454,5 5.40234,5 Z m 1.61133,0 0.88477,0 c 0.1778,0 0.32224,0.14446 0.32226,0.32227 l 0,11.35546 C 8.2207,16.85554 8.07624,17 7.89844,17 L 7.01367,17 C 6.8357,17 6.69141,16.85568 6.69141,16.67773 l 0,-11.35546 C 6.69141,5.14446 6.83572,5 7.01367,5 Z m 2.09375,0 0.88672,0 c 0.17795,0 0.3221,0.14446 0.32227,0.32227 l 0,11.35546 C 10.31641,16.85554 10.17209,17 9.99414,17 L 9.10742,17 C 8.92945,17 8.78516,16.85568 8.78516,16.67773 l 0,-11.35546 C 8.78516,5.14446 8.92947,5 9.10742,5 Z m 2.09375,0 0.0801,0 c 0.1778,0 0.32227,0.14446 0.32227,0.32227 l 0,11.35546 C 11.60354,16.85554 11.4591,17 11.28127,17 l -0.0801,0 C 11.02322,17 10.8789,16.85568 10.8789,16.67773 l 0,-11.35546 C 10.87891,5.14446 11.02322,5 11.20117,5 Z m 1.28906,0 2.81836,0 c 0.17781,0 0.32227,0.14446 0.32227,0.32227 l 0,7.08203 c 7.7e-4,0.43027 -0.41211,0.41211 -0.41211,0.41211 l -0.93359,0 c 0,0 -0.29578,-0.004 -0.30274,0.3164 l 0,3.53125 C 13.98942,16.99696 13.65625,17 13.65625,17 l -1.16602,0 c -0.17777,0 -0.32226,-0.14432 -0.32226,-0.32227 l 0,-11.35546 C 12.16797,5.14446 12.31243,5 12.49023,5 Z m 4.02735,0 0.0801,0 c 0.1778,0 0.32226,0.14446 0.32226,0.32227 l 0,7.15429 c 0,0.1778 -0.14444,0.32227 -0.32226,0.32227 l -0.0801,0 c -0.17795,0 -0.32227,-0.14432 -0.32227,-0.32227 l 0,-7.15429 C 16.19531,5.14446 16.33963,5 16.51758,5 Z M 16,13.36133 l 0.69922,0 0,1.40039 1.40039,0 0,0.70117 -1.40039,0 0,1.39844 -0.69922,0 0,-1.39844 -1.40039,0 0,-0.70117 1.40039,0 0,-1.40039 z"
     />
</svg>
